packages/appstore/src/assets/svgs/wallet/account-demo-mobile.svg

<svg width="36" height="36" viewBox="0 0 36 36" fill="none" xmlns="http://www.w3.org/2000/svg">
<rect x="6" y="6" width="24" height="24" rx="12" fill="#85ACB0"/>
<path d="M19.1512 10.5C22.9981 10.5 26.25 14.0576 26.25 18C26.25 21.9424 22.9981 25.5 19.1512 25.5H12.75C12.3358 25.5 12 25.1642 12 24.75C12 24.3358 12.3358 24 12.75 24H14.25V21H12.75C12.3654 21 12.0484 20.7105 12.005 20.3375L12 20.25C12 19.8358 12.3358 19.5 12.75 19.5H14.25V16.5H12.75C12.3654 16.5 12.0484 16.2105 12.005 15.8375L12 15.75C12 15.3358 12.3358 15 12.75 15H14.25V12H12.75C12.3654 12 12.0484 11.7105 12.005 11.3375L12 11.25C12 10.8358 12.3358 10.5 12.75 10.5H19.1512ZM19.1512 12H15.75V15H18.75C19.1346 15 19.4516 15.2895 19.495 15.6625L19.5 15.75C19.5 16.1642 19.1642 16.5 18.75 16.5H15.75V19.5H18.75C19.1346 19.5 19.4516 19.7895 19.495 20.1625L19.5 20.25C19.5 20.6642 19.1642 21 18.75 21H15.75V24H19.1512C22.0807 24 24.6494 21.2514 24.7471 18.181L24.75 18C24.75 14.8574 22.1381 12 19.1512 12Z" fill="white"/>
</svg>

<svg width="36" height="36" fill="none" xmlns="http://www.w3.org/2000/svg"><rect x="6" y="6" width="24" height="24" rx="12" fill="#85ACB0"/><path d="M19.151 10.5c3.847 0 7.099 3.558 7.099 7.5s-3.252 7.5-7.099 7.5H12.75a.75.75 0 0 1 0-1.5h1.5v-3h-1.5a.75.75 0 0 1-.745-.663L12 20.25a.75.75 0 0 1 .75-.75h1.5v-3h-1.5a.75.75 0 0 1-.745-.662L12 15.75a.75.75 0 0 1 .75-.75h1.5v-3h-1.5a.75.75 0 0 1-.745-.662L12 11.25a.75.75 0 0 1 .75-.75h6.401Zm0 1.5H15.75v3h3a.75.75 0 0 1 .745.662l.005.088a.75.75 0 0 1-.75.75h-3v3h3a.75.75 0 0 1 .745.663l.005.087a.75.75 0 0 1-.75.75h-3v3h3.401c2.93 0 5.498-2.749 5.596-5.819L24.75 18c0-3.143-2.612-6-5.599-6Z" fill="#fff"/></svg>
